!!!COM:	Josquin des Prez
!!!CDT:	~1450-1521/08/27
!!!OPR:	Missa Malheur me bat
!!!ONM:	2
!!!OTL:	Gloria
!!!AGN:	Mass; Gloria
!!!SCT:	NJE 9.1
!!!SCA:	New Josquin Edition 9.1
!!!voices: 4
!!!voices-OPR: 4(-6)
**kern	**kern	**kern	**kern
*staff4	*staff3	*staff2	*staff1
*Ivox	*Ivox	*Ivox	*Ivox
*I"Bassus	*I"Tenor	*I"Altus	*I"Superius
*I'B	*I'T	*I'A	*I'S
*>[A,B]	*>[A,B]	*>[A,B]	*>[A,B]
*>Gloria[A]	*>Gloria[A]	*>Gloria[A]	*>Gloria[A]
*>QuiTollis[B]	*>QuiTollis[B]	*>QuiTollis[B]	*>QuiTollis[B]
*clefF4	*clefGv2	*clefGv2	*clefG2
*k[]	*k[]	*k[]	*k[]
*>A	*>A	*>A	*>A
*M2/1	*M2/1	*M2/1	*M2/1
*met(C|)	*met(C|)	*met(C|)	*met(C|)
=1-	=1-	=1-	=1-
!!section: Et in terra pax
!!!OMD: Et in terra pax
!	!LO:TX:Y=22:t=[Tenor&colon; segmentation technique throughout]	!	!
!	!LO:TX:Z=8:t=T by Malcort	!	!
0r	0r	0E	0r
=2	=2	=2	=2
0r	0r	0B	0r
=3	=3	=3	=3
0r	0r	1c	0e
.	.	1c	.
=4	=4	=4	=4
0r	0r	1B	0b
.	.	1G	.
=5	=5	=5	=5
0r	0r	1A	1cc
.	.	1A	1cc
=6	=6	=6	=6
0r	0r	2.G/	1b
.	.	4A/	.
.	.	2B\	1g
.	.	[2c\	.
=7	=7	=7	=7
0r	0r	2c\]	1a
.	.	4B\	.
.	.	4A/	.
.	.	2c\	1a
.	.	2d\	.
=8	=8	=8	=8
0r	0r	2B\	2.g/
.	.	2.e\	.
.	.	.	4a/
.	.	.	2b\
.	.	4d\	.
.	.	4c\	2e/
.	.	4B\	.
=9	=9	=9	=9
0r	0r	2A/	2f/
.	.	2G/	2g/
.	.	2.c\	2a/
.	.	.	2e/
.	.	4B\	.
=10	=10	=10	=10
0r	0r	2A/	2f/
.	.	2G/	1e
.	.	1F	.
.	.	.	2d/
=11	=11	=11	=11
0r	0E	1E	0e
.	.	1G	.
=12	=12	=12	=12
0r	1B	1G	0r
.	1B	1G	.
=13	=13	=13	=13
0r	0c	0A	2r
.	.	.	2e/
.	.	.	2c/
.	.	.	[2e/
=14	=14	=14	=14
0r	1B	1.G	2e/]
.	.	.	4d/
.	.	.	4c/
.	1G	.	1B
.	.	4A/	.
.	.	4B\	.
=15	=15	=15	=15
0r	0A	1c	2.A/
.	.	.	4B/
.	.	2A/	4c/
.	.	.	4d/
.	.	2c\	[2e/
=16	=16	=16	=16
0r	1G	2B\	4e/]
.	.	.	4f/
.	.	2.e\	4g/
.	.	.	4a/
.	1E	.	2b\
.	.	4d\	.
.	.	4c\	[2cc\
.	.	4B\	.
=17	=17	=17	=17
0r	0F	2.A/	4cc\]
.	.	.	4b\
.	.	.	4a/
.	.	4B\	4g/
.	.	2c\	1a
.	.	2d\	.
=18	=18	=18	=18
2r	0r	2.G/	0g
2E\	.	.	.
.	.	4A/	.
2C/	.	2c\	.
[2E\	.	[2B\	.
=19	=19	=19	=19
2E\]	0r	4B\]	0r
.	.	4A/	.
4D\	.	1A	.
4C/	.	.	.
1BB	.	.	.
.	.	2G#i/	.
=20	=20	=20	=20
2AA/	0r	0A	2r
1c	.	.	2e/
.	.	.	2c/
4B\	.	.	[2e/
4A\	.	.	.
=21	=21	=21	=21
2G\	0r	0E	2e/]
1A	.	.	2c/
.	.	.	1B
2G#i\	.	.	.
=22	=22	=22	=22
0A	0r	2r	2A/
.	.	2e\	1cc
.	.	2c\	.
.	.	[2e\	4b\
.	.	.	4a/
=23	=23	=23	=23
0E	0r	2e\]	2g/
.	.	4d\	1a
.	.	4c\	.
.	.	1B	.
.	.	.	2g#i/
=24	=24	=24	=24
2r	0r	2A/	1.a
2A\	.	1f	.
2F\	.	.	.
[2A\	.	4e\	4g/
.	.	4d\	4f/
=25	=25	=25	=25
2A\]	0r	2c\	2e/
2F\	.	1d	2d/
1E	.	.	1g
.	.	2c\	.
=26	=26	=26	=26
[0D	0r	1d	2.f/
.	.	.	4g/
.	.	2B-\	2b-i\
.	.	[2d\	[2a/
=27	=27	=27	=27
0D]	0r	2d\]	4a/]
.	.	.	4g/
.	.	2B-i\	1g
.	.	1A	.
.	.	.	2f#i/
=28	=28	=28	=28
2r	0E	0G	0g
2G\	.	.	.
2E\	.	.	.
[2G\	.	.	.
=29	=29	=29	=29
2G\]	1B	1r	0r
2E\	.	.	.
1D	1B	1d	.
=30	=30	=30	=30
2.C/	0c	2.e\	0r
4D\	.	4f\	.
4E\	.	2g\	.
4F\	.	.	.
[2E\	.	[2G/	.
=31	=31	=31	=31
2E\]	1B	2G/]	0r
4D\	.	2A/	.
4C/	.	.	.
2BB/	1G	2B\	.
2E\	.	2E/	.
=32	=32	=32	=32
2.AA/	0A	2.c\	0r
4BB/	.	4d\	.
4C/	.	2e\	.
4D\	.	.	.
[2C/	.	[2E/	.
=33	=33	=33	=33
2C/]	1G	2E/]	1r
4BB/	.	2F/	.
4AA/	.	.	.
2GG/	1E	2G/	1g
2C/	.	2C/	.
=34	=34	=34	=34
0FF	0F	[0c	1a
.	.	.	1a
=35	=35	=35	=35
0C	2.E/	0c]	1.g
.	4F/	.	.
.	2G/	.	.
.	[2A/	.	2e/
=36	=36	=36	=36
0r	2A/]	1.c	2e/
.	2E/	.	2g/
.	2F/	.	2a/
.	2G/	2B\	2b\
=37	=37	=37	=37
0r	2A/	2A/	2e/
.	2E/	2G/	2g/
.	1F	2c\	2.a/
.	.	2d\	.
.	.	.	4b\
=38	=38	=38	=38
0r	2.E/	0e	2cc\
.	.	.	2.b\
.	4F/	.	.
.	2G/	.	.
.	.	.	4g/
.	[2A/	.	[2cc\
=39	=39	=39	=39
0r	2A/]	2.e\	2cc\]
.	2E/	.	2b\
.	.	4d\	.
.	2F/	2c\	2a/
.	2G/	2B\	2g/
=40	=40	=40	=40
0r	2A/	1e	2cc\
.	2E/	.	2b\
.	1F	1c	1a
=41	=41	=41	=41
1r	0E	2r	1g
.	.	2c\	.
1E	.	2B\	2r
.	.	[2e\	2g/
=42	=42	=42	=42
1E	1r	2e\]	2g/
.	.	2c\	2g/
1E	1e	1B	2g/
.	.	.	2g/
=43	=43	=43	=43
2.F\	1c	1A	1a
4E\	.	.	.
2D\	2d\	1r	2f/
2C/	[2e\	.	[2g/
=44	=44	=44	=44
2E\	2e\]	0r	2g/]
2F\	2A/	.	4f/
.	.	.	4e/
1G	1B	.	1d
=45	=45	=45	=45
1C	1c	2r	1c
.	.	2e\	.
1G	2B\	2d\	1r
.	[2G/	[2g\	.
=46	=46	=46	=46
2E\	2G/]	2g\]	0r
2F\	2A/	4f\	.
.	.	4e\	.
1G	1B	1d	.
=47	=47	=47	=47
[0C	0E	1c	1g
.	.	1g	2.e/
.	.	.	4f/
=48	=48	=48	=48
0C]	1r	2.e\	1g
.	.	4f\	.
.	1e	2g\	2c/
.	.	2G/	2g/
=49	=49	=49	=49
1r	1c	1A	2e/
.	.	.	2f/
1G	2d\	2G/	1g
.	[2e\	2g\	.
=50	=50	=50	=50
1A	2e\]	2e\	1c
.	2A/	2f\	.
1G	1B	1g	1r
=51	=51	=51	=51
1A	1c	2e\	0r
.	.	2f\	.
1G	2B\	[1g	.
.	[2G/	.	.
=52	=52	=52	=52
2E\	2G/]	2g\]	0r
2F\	2A/	4f\	.
.	.	4e\	.
1G	1B	1d	.
=53	=53	=53	=53
0C	2E/	1.c	1.g
.	1e	.	.
.	4d\	4B\	2a/
.	4c\	4A/	.
=54	=54	=54	=54
2r	4d\	1G	2b\
.	4c\	.	.
2G\	4B\	.	1g
.	4A/	.	.
2.E\	2.G/	[1g	.
.	.	.	4f/
4F\	4A/	.	4e/
=55	=55	=55	=55
2G\	2B\	1g]	2d/
2C/	2c\	.	2e/
2G\	2B\	1g	2d/
[2E\	[2e\	.	[2g/
=56	=56	=56	=56
4E\]	4e\]	1g	4g/]
4F\	4d\	.	4f/
2G\	2B\	.	2d/
1C	1c	1g	1e
=57	=57	=57	=57
0r	2B\	1g	2d/
.	2.e\	.	1g
.	.	1r	.
.	4d\	.	.
.	2f\	.	2a/
=58	=58	=58	=58
0r	2e\	0r	2b\
.	2c\	.	1cc
.	1d	.	.
.	.	.	2b\
=59	=59	=59	=59
2.C/	2r	0r	2cc\
.	1c	.	2a/
4D\	.	.	.
4E\	.	.	1g
4F\	.	.	.
2G\	2B\	.	.
=60	=60	=60	=60
2A\	2c\	0r	0r
1c	1A	.	.
2B\	2G/	.	.
=61	=61	=61	=61
2c\	2A/	0r	0r
1A	2c\	.	.
.	1B	.	.
4G\	.	.	.
4F\	.	.	.
=62	=62	=62	=62
2G\	2E/	0r	0r
2E\	1e	.	.
2G\	.	.	.
2A\	4d\	.	.
.	4c\	.	.
=63	=63	=63	=63
1F	4d\	0r	1r
.	4c\	.	.
.	4B\	.	.
.	4A/	.	.
[1E	2.G/	.	2r
.	.	.	2e/
.	4A/	.	.
=64	=64	=64	=64
1E]	2B\	0r	2.g/
.	2c\	.	.
.	.	.	4a/
1r	2B\	.	4b\
.	.	.	4a/
.	[2e\	.	[2cc\
=65	=65	=65	=65
0r	4e\]	0r	4cc\]
.	4d\	.	4b\
.	2B\	.	1b
.	1c	.	.
.	.	.	2a/
=66	=66	=66	=66
2.E\	2B\	0r	1b
.	2.e\	.	.
4F\	.	.	.
2G\	.	.	1r
.	4d\	.	.
[2A\	2f\	.	.
=67	=67	=67	=67
4A\]	2e\	0r	0r
4G\	.	.	.
1c	2c\	.	.
.	1d	.	.
2B\	.	.	.
=68	=68	=68	=68
2c\	2r	1c	0r
2A\	1c	.	.
1G	.	1d	.
.	2B\	.	.
=69	=69	=69	=69
0r	2c\	2.e\	0r
.	1A	.	.
.	.	4d\	.
.	.	4c\	.
.	.	4A/	.
.	2G/	[2B\	.
=70	=70	=70	=70
0r	2A/	4B\]	1r
.	.	4A/	.
.	2c\	1A	.
.	1B	.	1dd
.	.	2G#i/	.
=71	=71	=71	=71
0r	2A/	2.A/	2.cc\
.	1e	.	.
.	.	4G/	4b\
.	.	2E/	2g/
.	2d\	[2F/	[2a/
=72	=72	=72	=72
0r	2c\	2F/]	4a/]
.	.	.	4g/
.	1e	2G/	2e/
.	.	2A/	1f
.	2d\	2B\	.
=73	=73	=73	=73
2r	1.e	1c	2e/
2.C/	.	.	1g
.	.	1g	.
4D\	.	.	.
4E\	4d\	.	4f/
4F\	4c\	.	4e/
=74	=74	=74	=74
2G\	2B\	2r	2d/
2C/	2c\	1g	2c/
1G	2B\	.	1d
.	[2G/	4f\	.
.	.	4e\	.
=75	=75	=75	=75
2r	4G/]	1d	2r
.	4A/	.	.
2GG/	2B\	.	2d/
2.C/	2E/	1c	2e/
.	[2e\	.	[2g/
4D\	.	.	.
=76	=76	=76	=76
2E\	2e\]	1r	2g/]
2F\	4d\	.	4f/
.	4c\	.	4e/
2G\	1B	2r	1d
4A\	.	2d\	.
4B\	.	.	.
=77	=77	=77	=77
1.c	2A/	2.e\	1c
.	1e	.	.
.	.	4f\	.
.	.	2g\	1r
2B\	2d\	2G/	.
=78	=78	=78	=78
2A\	2c\	2A/	0r
2G\	1e	1B	.
1F	.	.	.
.	2d\	2A/	.
=79	=79	=79	=79
2E\	1.e	2B\	2r
2.C/	.	2c\	1g
.	.	1G	.
4D\	.	.	.
4E\	4d\	.	4f/
4F\	4c\	.	4e/
=80	=80	=80	=80
2G\	2B\	2r	2d/
2C/	2c\	1g	2c/
1G	2B\	.	1d
.	[2G/	4f\	.
.	.	4e\	.
=81	=81	=81	=81
2r	4G/]	1d	2r
.	4A/	.	.
2GG/	2B\	.	2d/
2.C/	2E/	1c	2e/
.	[2e\	.	[2g/
4D\	.	.	.
=82	=82	=82	=82
2E\	2e\]	1r	2g/]
2F\	4d\	.	4f/
.	4c\	.	4e/
2G\	1B	2r	1d
4A\	.	2d\	.
4B\	.	.	.
=83	=83	=83	=83
2.c\	2A/	2.e\	1c
.	1c	.	.
4B\	.	4d\	.
2A\	.	2c\	1r
2G\	2d\	2B\	.
=84	=84	=84	=84
2F\	2A/	1c	0r
2E\	1c	.	.
1F	.	1A	.
.	2d\	.	.
=85	=85	=85	=85
2.E\	2.e\	2B\	1.g
.	.	2e\	.
4F\	4d\	.	.
2G\	2B\	2d\	.
2C/	[2c\	2e\	2e/
=86	=86	=86	=86
1F	2c\]	2.A/	1a
.	4B\	.	.
.	4A/	4B\	.
2.E\	2.e\	4c\	[1g
.	.	4B\	.
.	.	2e\	.
4F\	4d\	.	.
=87	=87	=87	=87
2G\	2B\	2d\	2g/]
2C/	1c	2g\	2e/
2.E\	.	2e\	2.g/
.	4B\	[2g\	.
4F\	4A/	.	4f/
=88	=88	=88	=88
[0Gl	[0Bl	2g\]	[0dl
.	.	4f\	.
.	.	4e\	.
.	.	2d\	.
.	.	2G/	.
=89	=89	=89	=89
0G]	0B]	0gl	0d]
!!LO:LB:i:g=z
=90||	=90||	=90||	=90||
*>B	*>B	*>B	*>B
*M2/1	*M2/1	*M2/1	*M2/1
*met(C|)	*met(C|)	*met(C|)	*met(C|)
!!secton: Qui Tollis
!!!OMD: Qui Tollis
0r	0r	1e	0r
.	.	2e\	.
.	.	2e\	.
=91	=91	=91	=91
0r	0r	1e	0r
.	.	1f	.
=92	=92	=92	=92
0r	0r	2e\	1e
.	.	2g\	.
.	.	2e\	2e/
.	.	[2g\	2e/
=93	=93	=93	=93
0r	0r	4g\]	1e
.	.	4f\	.
.	.	1e	.
.	.	.	1f
.	.	2d\	.
=94	=94	=94	=94
1E	0r	0e	2e/
.	.	.	2g/
2E\	.	.	2e/
2E\	.	.	[2g/
=95	=95	=95	=95
1E	0r	0r	4g/]
.	.	.	4f/
.	.	.	1e
1F	.	.	.
.	.	.	2d/
=96	=96	=96	=96
2E\	1E	0r	0e
2G\	.	.	.
2E\	1E	.	.
[2G\	.	.	.
=97	=97	=97	=97
4G\]	1E	0r	0r
4F\	.	.	.
1E	.	.	.
.	1F	.	.
2D\	.	.	.
=98	=98	=98	=98
1E	1E	1G	0r
1AA	2r	2.A/	.
.	[2A/	.	.
.	.	4B\	.
=99	=99	=99	=99
1E	2A/]	2c\	0r
.	2G/	2.B\	.
2D\	1A	.	.
.	.	4A/	.
2C/	.	[2A/	.
=100	=100	=100	=100
1BB	1B	2A/]	1r
.	.	2G#i/	.
2.AA/	1c	1A	2r
.	.	.	2e/
4BB/	.	.	.
=101	=101	=101	=101
4C/	0r	1E	2e/
4D\	.	.	.
1E	.	.	2e/
.	.	1r	2f/
2D\	.	.	2f/
=102	=102	=102	=102
1E	0r	2r	2e/
.	.	2e\	1g
1r	.	2e\	.
.	.	2e\	4f/
.	.	.	4e/
=103	=103	=103	=103
0r	0r	2f\	1d
.	.	2f\	.
.	.	2e\	4c/
.	.	.	4d/
.	.	[2g\	4e/
.	.	.	4f/
=104	=104	=104	=104
0r	0r	2g\]	2g/
.	.	4f\	1a
.	.	4e\	.
.	.	1d	.
.	.	.	4g/
.	.	.	4f/
=105	=105	=105	=105
1r	0r	1c	1e
[1C	.	[1e	1r
=106	=106	=106	=106
2C/]	0r	2e\]	1.g
2C/	.	2e\	.
1C	.	1e	.
.	.	.	2g/
=107	=107	=107	=107
2r	1E	2e\	1g
1C	.	2e\	.
.	1E	2e\	2r
2C/	.	2e\	2g/
=108	=108	=108	=108
2C/	1E	1e	2g/
2C/	.	.	2g/
1D	1F	2.A/	2f/
.	.	.	[2a/
.	.	4B\	.
=109	=109	=109	=109
2AA/	1E	2c\	4a/]
.	.	.	4g/
1E	.	2B\	1g
.	2r	1e	.
2C/	[2A/	.	2e/
=110	=110	=110	=110
2D\	2A/]	2d\	2f/
2E\	2G/	2B\	2g/
1AA	1A	2.c\	1e
.	.	4B\	.
=111	=111	=111	=111
2r	1B	1G	2r
1E	.	.	1g
.	1c	2r	.
2C/	.	2e\	2e/
=112	=112	=112	=112
2D\	2B\	2d\	2f/
2E\	2G/	2B\	2g/
1AA	1A	1c	1e
=113	=113	=113	=113
2r	2G/	1B	2r
2E\	1G	.	2g/
2C/	.	1r	2e/
2D\	2F/	.	[2f/
=114	=114	=114	=114
1E	1G	0r	4f/]
.	.	.	4e/
.	.	.	1e
1F	1A	.	.
.	.	.	2d/
=115	=115	=115	=115
1E	2B\	2r	1e
.	2G/	2e\	.
1F	1A	2c\	1r
.	.	2d\	.
=116	=116	=116	=116
1E	2G/	2e\	0r
.	1G	4g\	.
.	.	4f\	.
2C/	.	4e\	.
.	.	4d\	.
2D\	2F/	[2f\	.
=117	=117	=117	=117
1E	1G	4f\]	0r
.	.	4e\	.
.	.	1e	.
2.F\	1A	.	.
.	.	2d\	.
4E\	.	.	.
=118	=118	=118	=118
0C	1G	0e	2r
.	.	.	2g/
.	2r	.	2g/
.	[2c\	.	2g/
=119	=119	=119	=119
0r	2c\]	0r	2a/
.	2d\	.	2.b\
.	1e	.	.
.	.	.	4g/
.	.	.	2cc\
=120	=120	=120	=120
0r	2e\	0r	2b\
.	1f	.	1a
.	4e\	.	4g/
.	4d\	.	4f/
=121	=121	=121	=121
0r	1.c	2r	1e
.	.	2g\	.
.	.	2e\	1r
.	[2d\	[2f\	.
=122	=122	=122	=122
1r	4d\]	4f\]	0r
.	4c\	4e\	.
.	2A/	2c\	.
1GG	1B	1d	.
=123	=123	=123	=123
1.C	0c	2e\	0r
.	.	2c\	.
.	.	2.e\	.
2D\	.	.	.
.	.	4f\	.
=124	=124	=124	=124
2E\	1G	1g	0r
2E\	.	.	.
2E\	2r	1G	.
2E\	[2c\	.	.
=125	=125	=125	=125
2.F\	2c\]	2.A/	1r
.	2d\	.	.
4E\	.	4B\	.
1C	1e	1c	2g/
.	.	.	2g/
=126	=126	=126	=126
0r	2e\	0r	2g/
.	1f	.	1a
.	4e\	.	4g/
.	4d\	.	4f/
=127	=127	=127	=127
2.c\	1.c	2r	2e/
.	.	1A	1cc
4B\	.	.	.
2A\	.	.	.
2G\	[2d\	2B\	2b\
=128	=128	=128	=128
2.F\	4d\]	1c	2.a/
.	4c\	.	.
.	2A/	.	.
4E\	.	.	4g/
1D	1B	1d	1f
=129	=129	=129	=129
1C	0c	2r	0e
.	.	2G/	.
1r	.	2.A/	.
.	.	4B\	.
=130	=130	=130	=130
2.C/	1r	0c	0r
4D\	.	.	.
2E\	1c	.	.
[2F\	.	.	.
=131	=131	=131	=131
4F\]	1d	1r	0r
4E\	.	.	.
4F\	.	.	.
4G\	.	.	.
1C	1e	2r	.
.	.	2G/	.
=132	=132	=132	=132
0r	2.c\	4A/	0r
.	.	4G/	.
.	.	4A/	.
.	4d\	4B\	.
.	2e\	2c\	.
.	[2f\	[2d\	.
=133	=133	=133	=133
0r	4f\]	4d\]	0r
.	4e\	4c\	.
.	4d\	1c	.
.	4c\	.	.
.	1d	.	.
.	.	2B\	.
=134	=134	=134	=134
2.C/	1r	0c	0r
4D\	.	.	.
2E\	1c	.	.
[2F\	.	.	.
=135	=135	=135	=135
4F\]	1d	0r	1r
4E\	.	.	.
4F\	.	.	.
4G\	.	.	.
1C	1e	.	2r
.	.	.	2g/
=136	=136	=136	=136
0r	2.c\	0r	4a/
.	.	.	4g/
.	.	.	4a/
.	4d\	.	4b\
.	2e\	.	2cc\
.	[2f\	.	[2dd\
=137	=137	=137	=137
0r	4f\]	0r	4dd\]
.	4e\	.	4cc\
.	4d\	.	1cc
.	4c\	.	.
.	1d	.	.
.	.	.	2b\
=138	=138	=138	=138
1C	2c\	0r	2cc\
.	1c	.	1a
1D	.	.	.
.	2B\	.	4g/
.	.	.	4f/
=139	=139	=139	=139
1C	2c\	1c	1e
.	1c	.	.
1G	.	1d	1r
.	2B\	.	.
=140	=140	=140	=140
2r	1c	1c	1cc
2c\	.	.	.
2B\	1r	1g	2dd\
[2c\	.	.	[2ee\
=141	=141	=141	=141
2c\]	1c	2e\	2ee\]
4B\	.	2f\	4dd\
4A\	.	.	4cc\
2G\	2d\	[1g	2b\
2C/	[2e\	.	[2cc\
=142	=142	=142	=142
1C	2e\]	2g\]	2cc\]
.	4d\	4f\	4b\
.	4c\	4e\	4a/
1r	2B\	2d\	2g/
.	[2c\	[2e\	[2a/
=143	=143	=143	=143
1C	2c\]	2e\]	2a/]
.	4B\	4d\	4g/
.	4A/	4c\	4f/
1r	2G/	2B\	2e/
.	2A/	[2c\	[2f/
=144	=144	=144	=144
1C	2G/	4c\]	4f/]
.	.	4B\	4e/
.	2E/	2G/	1e
1r	1F	1a	.
.	.	.	2d/
=145	=145	=145	=145
2C/	1c	[0g	2e/
2c\	.	.	2ee\
2B\	1r	.	2dd\
[2c\	.	.	[2ee\
=146	=146	=146	=146
2c\]	1c	0g_	2ee\]
4B\	.	.	4dd\
4A\	.	.	4cc\
2G\	2d\	.	2b\
2C/	[2e\	.	2cc\
=147	=147	=147	=147
1C	2e\]	0g]	2r
.	4d\	.	2ee\
.	4c\	.	.
1r	2B\	.	2dd\
.	[2c\	.	[2ee\
=148	=148	=148	=148
2.C/	2c\]	2.e\	2ee\]
.	4B\	.	4dd\
4D\	4A/	4f\	4cc\
2E\	2G/	2g\	2b\
2AA/	2A/	[2c\	[2cc\
=149	=149	=149	=149
1E	2G/	4c\]	4cc\]
.	.	4d\	4b\
.	2E/	1e	2g/
1r	1F	.	1a
.	.	2d\	.
=150	=150	=150	=150
2.E\	[0El	2.e\	1g
4F\	.	4d\	.
2G\	.	2B\	2r
[2C/	.	[2c\	[2e/
=151	=151	=151	=151
4C/]	0E_	4c\]	4e/]
4D\	.	4B\	4f/
2E\	.	2G/	2g/
1AA	.	2A/	1c
.	.	2c\	.
=152	=152	=152	=152
0El	0E]	0Bl	0gl
==	==	==	==
*-	*-	*-	*-
!!!RDF**kern: l=long note in original notation
!!!RDF**kern: i=editorial accidental
!!!ONB1: Montanus 1549 includes Pleni contrafact with text 
!!!ONB2: "Ovid tam sollicitis vitam consumimus")
!!!ENC:	Jesse Rodin; Victoria Chang 2011/04/14
!!!END:	2011/04/14/
!!!EED:	Jesse Rodin
!!!EEV:	2011/04/19/
!!attribution-level: 1 (secure)
!!!ONB:	Translated from MusicXML and edited on 2011/04/19/ by Craig Sapp
!!muse2ps: T^@{OPR}^u^@{ONM}{. }@{OTL}^C^@{COM}\n@{SCT}^i2I100v85,90,85,100Q16
